assets/icons/uE017-location.svg

<svg xmlns="http://www.w3.org/2000/svg" width="896" height="1232" viewBox="0 0 896 1232"><path d="M448 56q210 0 329 90.5T896 397q0 51-37.5 120.5t-86.5 130T657.5 775t-103 101.5T484 939q-14 13-36 13-21 0-37-13-34-30-70-62.5t-102.5-101-115-128-86-129.5T0 397q0-160 118.5-250.5T448 56zm0 840q16-14 42.5-37.5t94-90 119-126.5 94-129.5T840 397q0-97-54-162.5t-140-94T448 112q-174 0-283 71T56 397q0 46 40.5 114t98 132.5 115 123T408 860zm0-658q52 0 89 37t37 89-37 89-89 37-89-37-37-89 37-89 89-37zm0 224q40 0 69-29t29-69-29-69-69-29-69 29-29 69 29 69 69 29z"/></svg>

<?xml version="1.0" encoding="UTF-8" standalone="no"?><svg   xmlns:svg="http://www.w3.org/2000/svg"   xmlns="http://www.w3.org/2000/svg"   version="1.1"   width="896"   height="1232"   viewBox="0 0 896 1232">  <path     d="M448 56Q658 56 777 146.5T896 397Q896 448 858.5 517.5T772 647.5T657.5 775T554.5 876.5T484 939Q470 952 448 952Q427 952 411 939Q377 909 341 876.5T238.5 775.5T123.5 647.5T37.5 518T0 397Q0 237 118.5 146.5T448 56zM448 896Q464 882 490.5 858.5T584.5 768.5T703.5 642T797.5 512.5T840 397Q840 300 786 234.5T646 140.5T448 112Q274 112 165 183T56 397Q56 443 96.5 511T194.5 643.5T309.5 766.5T408 860zM448 238Q500 238 537 275T574 364T537 453T448 490T359 453T322 364T359 275T448 238zM448 462Q488 462 517 433T546 364T517 295T448 266T379 295T350 364T379 433T448 462z"     id="icon142" /></svg>
